museum/assets/i-facebook.svg

<svg width="40" height="40" viewBox="0 0 40 40" fill="none" xmlns="http://www.w3.org/2000/svg">
<path fill-rule="evenodd" clip-rule="evenodd" d="M20.1177 0C31.0984 0 40.0001 8.90163 40.0001 19.8824C40.0001 30.8631 31.0984 39.7647 20.1177 39.7647C9.13698 39.7647 0.235352 30.8631 0.235352 19.8824C0.235352 8.90163 9.13698 0 20.1177 0ZM23.0914 7.75896C19.4413 7.75896 16.9426 9.92833 16.9426 13.9124V17.3455H12.8143V22.0006H16.9426V33.9456H21.8794V22.0006H25.9971L26.6136 17.3455H21.8794V14.3733C21.8794 13.0255 22.2638 12.107 24.2488 12.107L26.7804 12.1061V7.9425C26.3423 7.88575 24.8396 7.75896 23.0914 7.75896Z" fill="#121212"/>
</svg>

<svg width="40" height="40" viewBox="0 0 40 40" fill="none" xmlns="http://www.w3.org/2000/svg"><path fill-rule="evenodd" clip-rule="evenodd" d="M20.118 0C31.098 0 40 8.902 40 19.882c0 10.981-8.902 19.883-19.882 19.883C9.137 39.765.235 30.863.235 19.882.235 8.902 9.137 0 20.118 0Zm2.973 7.759c-3.65 0-6.148 2.17-6.148 6.153v3.434h-4.129V22h4.129v11.945h4.936V22h4.118l.617-4.655h-4.735v-2.973c0-1.348.385-2.266 2.37-2.266h2.531V7.942c-.438-.057-1.94-.184-3.689-.184Z" fill="#121212"/></svg>
